build/images/last-section/Vectorls-icon-13.svg

<svg width="64" height="76" viewBox="0 0 64 76" fill="none" xmlns="http://www.w3.org/2000/svg">
<path d="M52.1838 67.0867L52.2959 42.9958C55.7624 39.6231 60.121 27.3544 60.121 27.3544C60.121 27.3544 69.0625 2.58585 42.238 1.91338C15.4135 1.24091 1.99609 17.8987 1.99609 17.8987C1.99609 17.8987 8.03187 22.2878 8.25617 32.0822C8.48047 41.8767 8.47538 67.0867 8.47538 67.0867M60.0955 50.8499L52.2398 55.5777M29.6057 36.4097L20.9394 36.3583M29.6057 44.0071H20.9394M29.6057 51.3273H20.9394M6.3649 66.9378H55.6095C56.0259 66.9378 56.4382 67.0204 56.8229 67.1809C57.2076 67.3413 57.5571 67.5765 57.8516 67.873C58.146 68.1695 58.3796 68.5215 58.5389 68.9089C58.6983 69.2963 58.7803 69.7115 58.7803 70.1308V73.8936H3.21447V70.1308C3.21445 69.2875 3.54571 68.4785 4.13595 67.8803C4.7262 67.2821 5.52748 66.9433 6.3649 66.9378ZM43.5787 12.8218V33.1808C43.5786 33.5873 43.7016 33.9841 43.9315 34.3183C44.1613 34.6525 44.4869 34.9081 44.8648 35.0509C45.2428 35.1938 45.655 35.2171 46.0464 35.1177C46.4378 35.0184 46.7899 34.8011 47.0554 34.4949C49.1761 32.0258 51.6434 28.3349 52.6272 23.7559C52.6869 23.4707 52.7159 23.1798 52.7139 22.8884V15.9275C52.7156 14.9535 52.4849 13.9932 52.0414 13.1276C51.5978 12.262 50.9543 11.5163 50.165 10.9533C48.0647 9.45432 45.1998 8.33525 43.7571 11.8259C43.6326 12.1427 43.5719 12.4812 43.5787 12.8218ZM28.9888 60.7778C26.8549 60.7764 24.8088 59.9219 23.3004 58.4019C21.7919 56.882 20.9446 54.8211 20.9446 52.6722V35.3368C20.9459 33.1879 21.7946 31.1276 23.304 29.6086C24.8134 28.0896 26.86 27.2363 28.994 27.2363C31.1279 27.2363 33.1745 28.0896 34.6839 29.6086C36.1933 31.1276 37.042 33.1879 37.0433 35.3368V52.6722C37.0433 53.7371 36.835 54.7915 36.4301 55.7753C36.0253 56.759 35.4319 57.6528 34.6839 58.4055C33.9359 59.1583 33.048 59.7552 32.0708 60.1623C31.0936 60.5693 30.0463 60.7785 28.9888 60.7778Z" stroke="#FF6B00" stroke-width="3" stroke-linecap="round" stroke-linejoin="round"/>
</svg>

<svg width="64" height="76" fill="none" xmlns="http://www.w3.org/2000/svg"><path d="M52.184 67.087l.112-24.091c3.466-3.373 7.825-15.642 7.825-15.642s8.941-24.768-17.883-25.44C15.413 1.24 1.996 17.898 1.996 17.898s6.036 4.389 6.26 14.183c.224 9.795.22 35.005.22 35.005m51.62-16.237l-7.856 4.728M29.606 36.41l-8.667-.052m8.667 7.65h-8.667m8.667 7.32h-8.667M6.365 66.937h49.244a3.151 3.151 0 0 1 2.243.935 3.194 3.194 0 0 1 .928 2.258v3.763H3.214V70.13c0-.844.332-1.653.922-2.25a3.16 3.16 0 0 1 2.229-.943zm37.214-54.116V33.18c0 .406.123.803.352 1.137.23.335.556.59.934.733a1.97 1.97 0 0 0 2.19-.556c2.121-2.47 4.588-6.16 5.572-10.74.06-.284.089-.575.087-.867v-6.96a6.118 6.118 0 0 0-.673-2.8 6.07 6.07 0 0 0-1.876-2.175c-2.1-1.499-4.965-2.618-6.408.873a2.582 2.582 0 0 0-.178.996zm-14.59 47.956a8.021 8.021 0 0 1-5.689-2.376 8.134 8.134 0 0 1-2.355-5.73V35.337a8.134 8.134 0 0 1 2.359-5.728 8.021 8.021 0 0 1 5.69-2.373c2.134 0 4.18.854 5.69 2.373a8.134 8.134 0 0 1 2.36 5.728v17.335c0 1.065-.209 2.12-.614 3.103a8.109 8.109 0 0 1-1.746 2.63 8.046 8.046 0 0 1-2.613 1.757 8.002 8.002 0 0 1-3.082.616z" stroke="#FF6B00" stroke-width="3" stroke-linecap="round" stroke-linejoin="round"/></svg>
